src/assets/images/icons/interrogation.svg

<svg xmlns="http://www.w3.org/2000/svg" xmlns:xlink="http://www.w3.org/1999/xlink" width="50" zoomAndPan="magnify" viewBox="0 0 600 599.999999" height="50" preserveAspectRatio="xMidYMid meet" version="1.0"><defs><clipPath id="f6c8d997b4"><path d="M 139.765625 0 L 460.5 0 L 460.5 410 L 139.765625 410 Z M 139.765625 0 " clip-rule="nonzero"/></clipPath></defs><path fill="#ffd11e" d="M 277.851562 426.507812 C 228.605469 426.507812 192.816406 463.015625 192.816406 513.253906 C 192.816406 563.492188 228.605469 600 277.851562 600 C 328.421875 600 363.773438 564.320312 363.773438 513.03125 C 362.78125 461.304688 328.3125 426.507812 277.851562 426.507812 Z M 277.851562 577.390625 C 241.070312 577.390625 215.371094 551.03125 215.371094 513.253906 C 215.371094 474.871094 240.519531 449.117188 277.851562 449.117188 C 315.628906 449.117188 340.445312 474.375 341.160156 513.253906 C 341.160156 551.636719 315.738281 577.390625 277.851562 577.390625 Z M 277.851562 577.390625 " fill-opacity="1" fill-rule="nonzero"/><g clip-path="url(#f6c8d997b4)"><path fill="#ffd11e" d="M 390.023438 283.234375 C 421.511719 248.492188 460.71875 205.3125 460.71875 140.238281 C 460.71875 75.386719 415.886719 -0.332031 289.488281 -0.332031 C 215.867188 -0.332031 164.25 24.484375 145.5 35.128906 C 140.867188 37.71875 138.71875 43.234375 140.261719 48.308594 L 168.441406 138.640625 C 169.542969 142.113281 172.191406 144.816406 175.554688 145.972656 C 178.972656 147.132812 182.722656 146.636719 185.703125 144.59375 C 205.113281 131.140625 236.21875 121.710938 261.089844 121.710938 C 293.902344 122.371094 310.5 135.332031 310.5 160.148438 C 310.5 182.8125 291.640625 207.574219 265.113281 239.890625 C 228.109375 283.457031 210.738281 329.667969 213.550781 376.929688 L 214.378906 398.492188 C 214.597656 404.558594 219.617188 409.355469 225.683594 409.355469 L 335.921875 409.355469 C 342.15625 409.355469 347.226562 404.28125 347.226562 398.050781 L 347.226562 382.886719 C 346.457031 348.53125 358.589844 318.914062 386.546875 287.09375 Z M 369.671875 272.039062 C 338.019531 308.105469 323.734375 343.457031 324.617188 383.105469 L 324.617188 386.746094 L 236.492188 386.746094 L 236.105469 375.828125 C 233.625 333.75 248.734375 294.042969 282.484375 254.339844 C 307.355469 224.007812 333.109375 192.628906 333.109375 160.148438 C 333.109375 122.8125 306.308594 100.035156 261.308594 99.097656 C 236.65625 99.097656 208.035156 106.542969 185.757812 118.234375 L 164.636719 50.515625 C 186.199219 39.59375 229.929688 22.28125 289.488281 22.28125 C 399.066406 22.28125 438.164062 83.21875 438.164062 140.238281 C 438.164062 196.597656 403.699219 234.539062 373.3125 268.070312 Z M 369.671875 272.039062 " fill-opacity="1" fill-rule="nonzero"/></g></svg>

<svg xmlns="http://www.w3.org/2000/svg" width="50" viewBox="0 0 600 600" height="50" version="1.0"><defs><clipPath id="a"><path d="M139.766 0H460.5v410H139.766Zm0 0"/></clipPath></defs><path fill="#ffd11e" d="M277.852 426.508c-49.247 0-85.036 36.508-85.036 86.746 0 50.238 35.79 86.746 85.036 86.746 50.57 0 85.921-35.68 85.921-86.969-.992-51.726-35.46-86.523-85.921-86.523Zm0 150.883c-36.782 0-62.48-26.36-62.48-64.137 0-38.383 25.148-64.137 62.48-64.137 37.777 0 62.593 25.258 63.308 64.137 0 38.383-25.422 64.137-63.308 64.137Zm0 0"/><g clip-path="url(#a)"><path fill="#ffd11e" d="M390.023 283.234c31.489-34.742 70.696-77.921 70.696-142.996 0-64.851-44.832-140.57-171.23-140.57-73.622 0-125.239 24.816-143.989 35.46-4.633 2.59-6.781 8.106-5.238 13.18l28.18 90.333c1.101 3.472 3.75 6.175 7.113 7.332a11.421 11.421 0 0 0 10.148-1.38c19.41-13.452 50.516-22.882 75.387-22.882 32.812.66 49.41 13.621 49.41 38.437 0 22.665-18.86 47.426-45.387 79.743-37.004 43.566-54.375 89.777-51.562 137.039l.828 21.562c.219 6.067 5.238 10.863 11.305 10.863h110.238c6.234 0 11.305-5.074 11.305-11.304v-15.164c-.77-34.356 11.363-63.973 39.32-95.793Zm-20.351-11.195c-31.652 36.066-45.938 71.418-45.055 111.066v3.641h-88.125l-.387-10.918c-2.48-42.078 12.63-81.785 46.38-121.488 24.87-30.332 50.624-61.711 50.624-94.192 0-37.335-26.8-60.113-71.8-61.05-24.653 0-53.274 7.445-75.551 19.136l-21.121-67.718C186.199 39.594 229.93 22.28 289.488 22.28c109.578 0 148.676 60.938 148.676 117.957 0 56.36-34.465 94.301-64.851 127.832Zm0 0"/></g></svg>
